src/Widgets/AddressWidget/thumbnail.svg

<svg xmlns="http://www.w3.org/2000/svg" fill="none" viewBox="0 0 150 100"><g clip-path="url(#a)"><path stroke="#AAA" stroke-linecap="round" stroke-linejoin="bevel" stroke-width="4" d="M72.7 41.89h15.98m-35.68 0h12.14m15.92 7.44h14.23m-42.29 0h20.73M53 60.76h32.14M53 68.2h30.73M53 75.63h21.73"/><path fill="#AAA" d="M51.03 31.64 53.67 23h2.44l2.64 8.64h-1.68l-2.35-7.62h.31l-2.32 7.62zm1.58-1.8v-1.52h4.56v1.52h-4.55zm9.85 1.98c-.6 0-1.12-.15-1.57-.45s-.8-.71-1.05-1.22c-.25-.52-.38-1.1-.38-1.75s.13-1.25.38-1.76.61-.92 1.07-1.21c.46-.3 1-.44 1.62-.44s1.13.15 1.55.45.74.71.95 1.22c.22.52.32 1.1.32 1.75s-.11 1.23-.33 1.75-.54.92-.97 1.22-.97.45-1.61.45zm.26-1.45c.36 0 .65-.08.87-.25.22-.16.38-.39.47-.69s.14-.64.14-1.03-.05-.74-.14-1.03c-.1-.3-.25-.53-.46-.69s-.49-.25-.83-.25q-.54 0-.9.27c-.23.18-.41.42-.52.71-.11.3-.17.63-.17.99s.05.7.16.99c.11.3.27.54.5.71.22.18.51.26.86.26zm1.49 1.27V27.2h-.2V23h1.64v8.64zm5.75.18c-.6 0-1.12-.15-1.57-.45s-.8-.71-1.05-1.22c-.25-.52-.38-1.1-.38-1.75s.13-1.25.38-1.76.61-.92 1.07-1.21c.46-.3 1-.44 1.62-.44s1.13.15 1.55.45.74.71.95 1.22c.22.52.32 1.1.32 1.75s-.11 1.23-.33 1.75-.54.92-.97 1.22-.97.45-1.61.45zm.26-1.45c.36 0 .65-.08.87-.25.22-.16.38-.39.47-.69s.14-.64.14-1.03-.05-.74-.14-1.03c-.1-.3-.25-.53-.46-.69s-.49-.25-.83-.25q-.54 0-.9.27c-.23.18-.41.42-.52.71-.11.3-.17.63-.17.99s.05.7.16.99c.11.3.27.54.5.71.22.18.51.26.86.26zm1.49 1.27V27.2h-.2V23h1.64v8.64zm3.12 0v-6.48h1.44v1.58l-.16-.2c.08-.22.2-.43.34-.61s.31-.34.52-.46c.16-.1.33-.17.51-.22s.37-.09.57-.1.39 0 .59.01v1.52q-.27-.09-.63-.06c-.24.02-.45.07-.64.17-.19.09-.35.21-.49.35-.13.15-.23.32-.3.52s-.1.42-.1.67v3.31h-1.64zm7.84.18c-.66 0-1.25-.14-1.75-.43s-.9-.68-1.19-1.18-.43-1.08-.43-1.73c0-.71.14-1.32.42-1.85.28-.52.67-.93 1.16-1.22s1.06-.44 1.7-.44c.68 0 1.26.16 1.73.48.48.32.83.77 1.06 1.35s.31 1.26.24 2.05H84v-.6c0-.66-.1-1.13-.31-1.42s-.55-.44-1.03-.44c-.56 0-.96.17-1.23.51q-.39.51-.39 1.5c0 .6.13 1.07.39 1.4s.65.5 1.16.5c.32 0 .59-.07.82-.21s.4-.34.52-.61l1.63.47c-.24.59-.63 1.05-1.16 1.38s-1.1.49-1.73.49m-2.15-2.96v-1.21h4.3v1.21zm8.96 2.96c-.82 0-1.48-.18-1.98-.55s-.81-.89-.91-1.57l1.67-.25c.07.3.22.54.45.71s.53.26.89.26c.3 0 .52-.06.68-.17q.24-.165.24-.48c0-.13-.03-.23-.1-.31-.06-.08-.21-.16-.43-.23-.22-.08-.57-.18-1.03-.3-.53-.14-.95-.29-1.27-.46s-.54-.37-.68-.6-.21-.52-.21-.85c0-.42.11-.78.32-1.08s.51-.54.9-.71.84-.25 1.37-.25.96.08 1.35.23.71.38.95.67q.36.435.45 1.02l-1.67.3a.82.82 0 0 0-.31-.57c-.18-.14-.42-.22-.73-.25q-.45-.03-.72.12c-.18.1-.27.24-.27.43 0 .11.04.21.12.28.08.08.24.15.49.23s.62.18 1.12.31c.49.13.89.28 1.18.45.3.17.52.37.65.61.14.24.2.53.2.86 0 .66-.24 1.19-.72 1.57s-1.14.57-1.99.57zm6.57 0c-.82 0-1.48-.18-1.98-.55s-.81-.89-.91-1.57l1.67-.25c.07.3.22.54.45.71s.53.26.89.26c.3 0 .52-.06.68-.17q.24-.165.24-.48c0-.13-.03-.23-.1-.31-.06-.08-.21-.16-.43-.23-.22-.08-.57-.18-1.03-.3-.53-.14-.95-.29-1.27-.46s-.54-.37-.68-.6-.21-.52-.21-.85c0-.42.11-.78.32-1.08s.51-.54.9-.71.84-.25 1.37-.25.96.08 1.35.23.71.38.95.67q.36.435.45 1.02l-1.67.3a.82.82 0 0 0-.31-.57c-.18-.14-.42-.22-.73-.25q-.45-.03-.72.12c-.18.1-.27.24-.27.43 0 .11.04.21.12.28.08.08.24.15.49.23s.62.18 1.12.31c.49.13.89.28 1.18.45.3.17.52.37.65.61.14.24.2.53.2.86 0 .66-.24 1.19-.72 1.57s-1.14.57-1.99.57z"/></g><defs><clipPath id="a"><path fill="#fff" d="M51 23h47.76v54.63H51z"/></clipPath></defs></svg>

<svg viewBox="0 0 150 100" fill="none" xmlns="http://www.w3.org/2000/svg">
<g id="address">
<g id="Ebene_1" clip-path="url(#clip0_6_545)">
<path id="Vector" d="M72.7 41.89H88.68" stroke="#AAAAAA" stroke-width="4" stroke-linecap="round" stroke-linejoin="bevel"/>
<path id="Vector_2" d="M53 41.89H65.14" stroke="#AAAAAA" stroke-width="4" stroke-linecap="round" stroke-linejoin="bevel"/>
<path id="Vector_3" d="M81.06 49.33H95.29" stroke="#AAAAAA" stroke-width="4" stroke-linecap="round" stroke-linejoin="bevel"/>
<path id="Vector_4" d="M53 49.33H73.73" stroke="#AAAAAA" stroke-width="4" stroke-linecap="round" stroke-linejoin="bevel"/>
<path id="Vector_5" d="M53 60.76H85.14" stroke="#AAAAAA" stroke-width="4" stroke-linecap="round" stroke-linejoin="bevel"/>
<path id="Vector_6" d="M53 68.2H83.73" stroke="#AAAAAA" stroke-width="4" stroke-linecap="round" stroke-linejoin="bevel"/>
<path id="Vector_7" d="M53 75.63H74.73" stroke="#AAAAAA" stroke-width="4" stroke-linecap="round" stroke-linejoin="bevel"/>
<path id="Vector_8" d="M51.03 31.64L53.67 23H56.11L58.75 31.64H57.07L54.72 24.02H55.03L52.71 31.64H51.03ZM52.61 29.84V28.32H57.17V29.84H52.62H52.61Z" fill="#AAAAAA"/>
<path id="Vector_9" d="M62.46 31.82C61.86 31.82 61.34 31.67 60.89 31.37C60.44 31.07 60.09 30.66 59.84 30.15C59.59 29.63 59.46 29.05 59.46 28.4C59.46 27.75 59.59 27.15 59.84 26.64C60.09 26.13 60.45 25.72 60.91 25.43C61.37 25.13 61.91 24.99 62.53 24.99C63.15 24.99 63.66 25.14 64.08 25.44C64.5 25.74 64.82 26.15 65.03 26.66C65.25 27.18 65.35 27.76 65.35 28.41C65.35 29.06 65.24 29.64 65.02 30.16C64.8 30.68 64.48 31.08 64.05 31.38C63.62 31.68 63.08 31.83 62.44 31.83L62.46 31.82ZM62.72 30.37C63.08 30.37 63.37 30.29 63.59 30.12C63.81 29.96 63.97 29.73 64.06 29.43C64.15 29.13 64.2 28.79 64.2 28.4C64.2 28.01 64.15 27.66 64.06 27.37C63.96 27.07 63.81 26.84 63.6 26.68C63.39 26.52 63.11 26.43 62.77 26.43C62.41 26.43 62.11 26.52 61.87 26.7C61.64 26.88 61.46 27.12 61.35 27.41C61.24 27.71 61.18 28.04 61.18 28.4C61.18 28.76 61.23 29.1 61.34 29.39C61.45 29.69 61.61 29.93 61.84 30.1C62.06 30.28 62.35 30.36 62.7 30.36L62.72 30.37ZM64.21 31.64V27.2H64.01V23H65.65V31.64H64.21Z" fill="#AAAAAA"/>
<path id="Vector_10" d="M69.96 31.82C69.36 31.82 68.84 31.67 68.39 31.37C67.94 31.07 67.59 30.66 67.34 30.15C67.09 29.63 66.96 29.05 66.96 28.4C66.96 27.75 67.09 27.15 67.34 26.64C67.59 26.13 67.95 25.72 68.41 25.43C68.87 25.13 69.41 24.99 70.03 24.99C70.65 24.99 71.16 25.14 71.58 25.44C72 25.74 72.32 26.15 72.53 26.66C72.75 27.18 72.85 27.76 72.85 28.41C72.85 29.06 72.74 29.64 72.52 30.16C72.3 30.68 71.98 31.08 71.55 31.38C71.12 31.68 70.58 31.83 69.94 31.83L69.96 31.82ZM70.22 30.37C70.58 30.37 70.87 30.29 71.09 30.12C71.31 29.96 71.47 29.73 71.56 29.43C71.65 29.13 71.7 28.79 71.7 28.4C71.7 28.01 71.65 27.66 71.56 27.37C71.46 27.07 71.31 26.84 71.1 26.68C70.89 26.52 70.61 26.43 70.27 26.43C69.91 26.43 69.61 26.52 69.37 26.7C69.14 26.88 68.96 27.12 68.85 27.41C68.74 27.71 68.68 28.04 68.68 28.4C68.68 28.76 68.73 29.1 68.84 29.39C68.95 29.69 69.11 29.93 69.34 30.1C69.56 30.28 69.85 30.36 70.2 30.36L70.22 30.37ZM71.71 31.64V27.2H71.51V23H73.15V31.64H71.71Z" fill="#AAAAAA"/>
<path id="Vector_11" d="M74.83 31.64V25.16H76.27V26.74L76.11 26.54C76.19 26.32 76.31 26.11 76.45 25.93C76.59 25.75 76.76 25.59 76.97 25.47C77.13 25.37 77.3 25.3 77.48 25.25C77.66 25.2 77.85 25.16 78.05 25.15C78.25 25.14 78.44 25.15 78.64 25.16V26.68C78.46 26.62 78.25 26.6 78.01 26.62C77.77 26.64 77.56 26.69 77.37 26.79C77.18 26.88 77.02 27 76.88 27.14C76.75 27.29 76.65 27.46 76.58 27.66C76.51 27.86 76.48 28.08 76.48 28.33V31.64H74.84H74.83Z" fill="#AAAAAA"/>
<path id="Vector_12" d="M82.67 31.82C82.01 31.82 81.42 31.68 80.92 31.39C80.42 31.1 80.02 30.71 79.73 30.21C79.44 29.71 79.3 29.13 79.3 28.48C79.3 27.77 79.44 27.16 79.72 26.63C80 26.11 80.39 25.7 80.88 25.41C81.37 25.12 81.94 24.97 82.58 24.97C83.26 24.97 83.84 25.13 84.31 25.45C84.79 25.77 85.14 26.22 85.37 26.8C85.6 27.38 85.68 28.06 85.61 28.85H84V28.25C84 27.59 83.9 27.12 83.69 26.83C83.48 26.54 83.14 26.39 82.66 26.39C82.1 26.39 81.7 26.56 81.43 26.9C81.17 27.24 81.04 27.74 81.04 28.4C81.04 29 81.17 29.47 81.43 29.8C81.69 30.13 82.08 30.3 82.59 30.3C82.91 30.3 83.18 30.23 83.41 30.09C83.64 29.95 83.81 29.75 83.93 29.48L85.56 29.95C85.32 30.54 84.93 31 84.4 31.33C83.87 31.66 83.3 31.82 82.67 31.82ZM80.52 28.86V27.65H84.82V28.86H80.52Z" fill="#AAAAAA"/>
<path id="Vector_13" d="M89.48 31.82C88.66 31.82 88 31.64 87.5 31.27C87 30.9 86.69 30.38 86.59 29.7L88.26 29.45C88.33 29.75 88.48 29.99 88.71 30.16C88.94 30.33 89.24 30.42 89.6 30.42C89.9 30.42 90.12 30.36 90.28 30.25C90.44 30.14 90.52 29.98 90.52 29.77C90.52 29.64 90.49 29.54 90.42 29.46C90.36 29.38 90.21 29.3 89.99 29.23C89.77 29.15 89.42 29.05 88.96 28.93C88.43 28.79 88.01 28.64 87.69 28.47C87.37 28.3 87.15 28.1 87.01 27.87C86.87 27.64 86.8 27.35 86.8 27.02C86.8 26.6 86.91 26.24 87.12 25.94C87.33 25.64 87.63 25.4 88.02 25.23C88.41 25.06 88.86 24.98 89.39 24.98C89.92 24.98 90.35 25.06 90.74 25.21C91.13 25.36 91.45 25.59 91.69 25.88C91.93 26.17 92.08 26.51 92.14 26.9L90.47 27.2C90.44 26.96 90.34 26.77 90.16 26.63C89.98 26.49 89.74 26.41 89.43 26.38C89.13 26.36 88.89 26.4 88.71 26.5C88.53 26.6 88.44 26.74 88.44 26.93C88.44 27.04 88.48 27.14 88.56 27.21C88.64 27.29 88.8 27.36 89.05 27.44C89.3 27.52 89.67 27.62 90.17 27.75C90.66 27.88 91.06 28.03 91.35 28.2C91.65 28.37 91.87 28.57 92 28.81C92.14 29.05 92.2 29.34 92.2 29.67C92.2 30.33 91.96 30.86 91.48 31.24C91 31.62 90.34 31.81 89.49 31.81L89.48 31.82Z" fill="#AAAAAA"/>
<path id="Vector_14" d="M96.05 31.82C95.23 31.82 94.57 31.64 94.07 31.27C93.57 30.9 93.26 30.38 93.16 29.7L94.83 29.45C94.9 29.75 95.05 29.99 95.28 30.16C95.51 30.33 95.81 30.42 96.17 30.42C96.47 30.42 96.69 30.36 96.85 30.25C97.01 30.14 97.09 29.98 97.09 29.77C97.09 29.64 97.06 29.54 96.99 29.46C96.93 29.38 96.78 29.3 96.56 29.23C96.34 29.15 95.99 29.05 95.53 28.93C95 28.79 94.58 28.64 94.26 28.47C93.94 28.3 93.72 28.1 93.58 27.87C93.44 27.64 93.37 27.35 93.37 27.02C93.37 26.6 93.48 26.24 93.69 25.94C93.9 25.64 94.2 25.4 94.59 25.23C94.98 25.06 95.43 24.98 95.96 24.98C96.49 24.98 96.92 25.06 97.31 25.21C97.7 25.36 98.02 25.59 98.26 25.88C98.5 26.17 98.65 26.51 98.71 26.9L97.04 27.2C97.01 26.96 96.91 26.77 96.73 26.63C96.55 26.49 96.31 26.41 96 26.38C95.7 26.36 95.46 26.4 95.28 26.5C95.1 26.6 95.01 26.74 95.01 26.93C95.01 27.04 95.05 27.14 95.13 27.21C95.21 27.29 95.37 27.36 95.62 27.44C95.87 27.52 96.24 27.62 96.74 27.75C97.23 27.88 97.63 28.03 97.92 28.2C98.22 28.37 98.44 28.57 98.57 28.81C98.71 29.05 98.77 29.34 98.77 29.67C98.77 30.33 98.53 30.86 98.05 31.24C97.57 31.62 96.91 31.81 96.06 31.81L96.05 31.82Z" fill="#AAAAAA"/>
</g>
</g>
<defs>
<clipPath id="clip0_6_545">
<rect width="47.76" height="54.63" fill="white" transform="translate(51 23)"/>
</clipPath>
</defs>
</svg>
